icons/svg/24x24/side panel/outline.svg

<svg width="24" height="24" fill="none" xmlns="http://www.w3.org/2000/svg">
  <path fill-rule="evenodd" clip-rule="evenodd" d="M20 17a1 1 0 01-1 1h-2V6h2a1 1 0 011 1v10zM4 17V7a1 1 0 011-1h10v12H5a1 1 0 01-1-1zM19 4H5C3.346 4 2 5.346 2 7v10c0 1.654 1.346 3 3 3h14c1.654 0 3-1.346 3-3V7c0-1.654-1.346-3-3-3z" fill="#000"/>
</svg>

<svg xmlns="http://www.w3.org/2000/svg" width="24" height="24" viewBox="0 0 24 24">
  <path fill-rule="evenodd" d="M20,17 C20,17.552 19.552,18 19,18 L17,18 L17,6 L19,6 C19.552,6 20,6.448 20,7 L20,17 Z M4,17 L4,7 C4,6.448 4.448,6 5,6 L15,6 L15,18 L5,18 C4.448,18 4,17.552 4,17 L4,17 Z M19,4 L5,4 C3.346,4 2,5.346 2,7 L2,17 C2,18.654 3.346,20 5,20 L19,20 C20.654,20 22,18.654 22,17 L22,7 C22,5.346 20.654,4 19,4 L19,4 Z"/>
</svg>
